!!!OTL: Fengjian meidakai
!!!ARE: Asia, China,ÿLiaoning Xinmin
!! III, 248
!!!SCT: C1748
!!!YEM: Copyright 1995, estate of Helmut Schaffrath.
**kern
*ICvox
*Ivox
*M2/4
*k[f#]
*G:
{8dd
8b
8a
16a
16g
=1
8e
8g
4d}
=2
{8dd
8dd
8dd
8a
=3
8.b
16a
4g}
=4
{8a
4a
8dd
=5
8f#
8e
4d}
=6
{8a
8a
8a
8e
=7
8f#
16f#
16e
4d}
==
!!!AGN: Xiaodiao, Dongyangwugeng diao
!!!AMT: simple duple
!!!AIN: vox
!!!EED: Helmut Schaffrath
!!!EEV: 1.0
*-
